X:1
T:I kvällen
T:Helena Munktell (1852-1919)
T:Gammal kaffe- och namnsdagsvisa
%%score { ( 1 2 ) | ( 3 4 ) }
L:1/8
Q:1/4=99
M:3/4
K:Ab
V:1 treble nm="Vocals"
V:2 treble 
V:3 bass 
V:4 bass 
V:1
!mf! E>"^Instrument change"E |"^Instrument change" E2"^Instrument change"!<(! E2 E>!<)!c | %2
w: Vi ha|ä- ran gra- tu-|
w: Sil- jan|må i dag få|
"^Instrument change" c2"^Instrument change"!>(! A2!>)! G>A | %3
w: le- ra, men för|
w: speg- la ljus ô|
"^Instrument change" B2"^Instrument change" E2 F>G | %4
w: kaf- fe det för-|
w: glad en Em- ma-|
"^Instrument change" A4"^Instrument change"!<(! E>!<)!E | %5
w: stås. Nu får|
w: bild. Var- je|
"^Instrument change" E3"^Instrument change"!<(! E E>!<)!c | %6
w: vi ô så får|
w: moln må fjär- ran|
!f!"^Instrument change" c2"^Instrument change" A2 GA | %7
w: fle- ra sätt på|
w: seg- la, strå- le|
"^Instrument change" B2"^Instrument change" E2 FG | %8
w: pan- nan sjud ô|
w: so- len varm ô|
"^Instrument change" A4!p!"^Instrument change" GA | %9
w: blås! Vill ej|
w: mild! Go- da|
"^Instrument change" B2"^Instrument change" E2 AB |"^Instrument change" c4"^Instrument change" GA | %11
w: pan- nan sju- da|då, ploc- ka|
w: tom- tar ge dig|hägn! Myc- ket|
"^Instrument change" B2"^Instrument change" E2 AB | %12
w: spå- nor ô lägg|
w: kaf- fe la- gom|
"^Instrument change" c4!f!"^Instrument change" EE |"^Instrument change" E3 E E>c | %14
w: på. Vi ha|ä- ran gra- tu-|
w: regn. Här vi|fi- ka da- gen|
"^Instrument change" (c2"^Instrument change" A2) G>A | %15
w: le- ra! Sätt på|
w: lång _ Em- mas|
"^Instrument change" B2"^Instrument change"!<(! E2 F>!<)!G |"^Instrument change" !fermata!A6 |] %17
w: pan- nan, sjud ô|blås!|
w: fest med glam ô|sång!|
V:2
 E>E | E2 E2 D>C | C2 C2 E>E | E2 E2 D>D | C4 E>E | B,3 B, D>C | C2 C2 EE | E2 E2 FE | E4 B,C | %9
 =D2 E2 CE | C4 B,C | =D2 E2 C_D | C4 CC | D2"^Instrument change" C2 E>E | (E2 C2) E>E | %15
 E2 E2 D>D | C6 |] %17
V:3
!mf! E,>E, | E,2!<(! E,2 G,>!<)!E, | E,2!>(! A,2!>)! D>C | D2 G,2 A,>B, | C4!<(! E,>E,!<)! | %5
 G,3!<(! E, E,>!<)!E, |!f! E,2 A,2 DC | D2 D2 DD | C4!p! B,E, | A,2 G,2 F,G, | A,4 B,E, | %11
 A,2 G,2 F,G, | A,4!f! A,A, | B,2 A,2 D>C | (C2 E2) D>C | D2!<(! D2 E,>!<)!E, | E,6 |] %17
V:4
 E,>E, | E,2 E,2 E,>A,, | A,,2 A,,2 E,>E, | E,2 E,2 E,>E, | A,4 E,>E, | D,3 D, B,,>B,, | %6
 A,,2 A,2 B,A, | G,2 B,2 A,E, | A,4 E,E, | B,,2 E,2 E,E, | E,4 E,E, | B,,2 E,2 E,E, | E,4 E,E, | %13
 E,2 E,2 E,>A, | (A,2 A,2) D>C | G,2 B,2 E,>E, | !fermata!A,,6 |] %17

